SVG_Azure_Grouped/Storage/Data Share.svg

<?xml version="1.0" encoding="UTF-8" standalone="no"?>
<!-- Generated by Microsoft Visio, SVG Export Data Share.svg Page-1 -->

<svg
   xmlns:dc="http://purl.org/dc/elements/1.1/"
   xmlns:cc="http://creativecommons.org/ns#"
   xmlns:rdf="http://www.w3.org/1999/02/22-rdf-syntax-ns#"
   xmlns:svg="http://www.w3.org/2000/svg"
   xmlns="http://www.w3.org/2000/svg"
   xmlns:sodipodi="http://sodipodi.sourceforge.net/DTD/sodipodi-0.dtd"
   xmlns:inkscape="http://www.inkscape.org/namespaces/inkscape"
   width="0.80550092in"
   height="0.66918963in"
   viewBox="0 0 57.995845 48.181902"
   xml:space="preserve"
   class="st9"
   version="1.1"
   id="svg79"
   sodipodi:docname="Data Share.svg"
   style="font-size:12px;overflow:visible;color-interpolation-filters:sRGB;fill:none;fill-rule:evenodd;stroke-linecap:square;stroke-miterlimit:3"
   inkscape:version="0.92.5 (2060ec1f9f, 2020-04-08)"><metadata
   id="metadata83"><rdf:RDF><cc:Work
       rdf:about=""><dc:format>image/svg+xml</dc:format><dc:type
         rdf:resource="http://purl.org/dc/dcmitype/StillImage" /></cc:Work></rdf:RDF></metadata><sodipodi:namedview
   pagecolor="#ffffff"
   bordercolor="#666666"
   borderopacity="1"
   objecttolerance="10"
   gridtolerance="10"
   guidetolerance="10"
   inkscape:pageopacity="0"
   inkscape:pageshadow="2"
   inkscape:window-width="640"
   inkscape:window-height="480"
   id="namedview81"
   showgrid="false"
   inkscape:zoom="1.5231781"
   inkscape:cx="38.658465"
   inkscape:cy="32.108907"
   inkscape:window-x="0"
   inkscape:window-y="0"
   inkscape:window-maximized="0"
   inkscape:current-layer="svg79" />
	<style
   type="text/css"
   id="style2">
	<![CDATA[
		.st1 {fill:#949494;stroke:none;stroke-linecap:butt;stroke-width:34}
		.st2 {fill:#ffffff;stroke:none;stroke-linecap:butt;stroke-width:34}
		.st3 {fill:#32bedd;stroke:none;stroke-linecap:butt;stroke-width:34}
		.st4 {fill:url(#grad0-16);stroke:none;stroke-linecap:butt;stroke-width:34}
		.st5 {fill:#e8e8e8}
		.st6 {stroke:none;stroke-linecap:butt;stroke-width:34}
		.st7 {fill:#50e6ff}
		.st8 {fill:#198ab3;stroke:none;stroke-linecap:butt;stroke-width:34}
		.st9 {fill:none;fill-rule:evenodd;font-size:12px;overflow:visible;stroke-linecap:square;stroke-miterlimit:3}
	]]>
	</style>

	<defs
   id="Patterns_And_Gradients">
		<linearGradient
   id="grad0-16"
   x1="0"
   y1="70.752869"
   x2="39.454683"
   y2="70.752869"
   gradientTransform="scale(0.94842988,1.0543742)"
   gradientUnits="userSpaceOnUse">
			<stop
   offset="0"
   stop-color="#005ba1"
   stop-opacity="1"
   id="stop4" />
			<stop
   offset="0.07"
   stop-color="#0060a9"
   stop-opacity="1"
   id="stop6" />
			<stop
   offset="0.36"
   stop-color="#0071c8"
   stop-opacity="1"
   id="stop8" />
			<stop
   offset="0.52"
   stop-color="#0078d4"
   stop-opacity="1"
   id="stop10" />
			<stop
   offset="0.64"
   stop-color="#0074cd"
   stop-opacity="1"
   id="stop12" />
			<stop
   offset="0.82"
   stop-color="#006abb"
   stop-opacity="1"
   id="stop14" />
			<stop
   offset="1"
   stop-color="#005ba1"
   stop-opacity="1"
   id="stop16" />
		</linearGradient>
	</defs>
	<g
   id="g77"
   transform="translate(-34.000565,-34.0024)">
		<title
   id="title20">Page-1</title>
		<g
   id="group20376-1"
   transform="translate(34,-34.0157)">
			<title
   id="title22">Data Share.20376</title>
			<g
   id="group20377-2">
				<title
   id="title24">Icon-storage-98</title>
				<g
   id="shape20378-3"
   transform="translate(36.3967,-6.61352)">
					<title
   id="title26">Sheet.20378</title>
					<path
   d="M 16.48,84.7 13.99,83.5 6.45,98.59 H 0 v 2.66 h 6.52 l 7.47,14.95 2.49,-1.19 L 8.9,99.85 Z"
   class="st1"
   id="path28"
   inkscape:connector-curvature="0"
   style="fill:#949494;stroke:none;stroke-width:34;stroke-linecap:butt" />
				</g>
				<g
   id="shape20379-5"
   transform="translate(46.5278,-33.6326)">
					<title
   id="title31">Sheet.20379</title>
					<path
   d="M 5.08,116.2 A 4.94613,4.8189 0 0 1 2.32,115.41 5.01436,4.88537 0 0 1 0,112.08 a 5.21902,5.08477 0 0 1 5.08,-6.21 5.1508,5.0183 0 0 1 2.8,0.8 5.25313,5.118 0 0 1 2.29,3.32 5.21902,5.08477 0 0 1 -5.09,6.18 z"
   class="st2"
   id="path33"
   inkscape:connector-curvature="0"
   style="fill:#ffffff;stroke:none;stroke-width:34;stroke-linecap:butt" />
				</g>
				<g
   id="shape20380-7"
   transform="translate(47.6534,-32.7486)">
					<title
   id="title36">Sheet.20380</title>
					<path
   d="m 3.96,106.28 a 4.09335,3.98805 0 0 1 2.18,0.63 3.99102,3.88835 0 0 1 1.77,2.46 4.05924,3.95482 0 0 1 -0.51,2.99 4.12746,4.02129 0 0 1 -3.41,1.83 4.02513,3.92159 0 0 1 -2.18,-0.6 A 4.09335,3.98805 0 0 1 0,111.1 4.09335,3.98805 0 0 1 3.96,106.28 Z m 0,-2.26 a 6.37881,6.21472 -180 1 0 3.41,0.96 6.31058,6.14825 -180 0 0 -3.41,-0.96 z"
   class="st3"
   id="path38"
   inkscape:connector-curvature="0"
   style="fill:#32bedd;stroke:none;stroke-width:34;stroke-linecap:butt" />
				</g>
				<g
   id="shape20381-9"
   transform="translate(46.5266,-2.12696)">
					<title
   id="title41">Sheet.20381</title>
					<path
   d="m 5.08,116.2 a 4.94613,4.8189 0 0 1 -2.76,-0.79 5.1508,5.0183 0 0 1 -1.64,-6.98 5.18491,5.05153 0 0 1 7.2,-1.6 5.21902,5.08477 0 0 1 -2.8,9.37 z"
   class="st2"
   id="path43"
   inkscape:connector-curvature="0"
   style="fill:#ffffff;stroke:none;stroke-width:34;stroke-linecap:butt" />
				</g>
				<g
   id="shape20382-11"
   transform="translate(47.6534,-1.24294)">
					<title
   id="title46">Sheet.20382</title>
					<path
   d="m 3.96,106.28 a 4.09335,3.98805 0 0 1 2.18,0.63 3.99102,3.88835 0 0 1 1.77,2.46 4.05924,3.95482 0 0 1 -0.51,2.99 4.12746,4.02129 0 0 1 -3.41,1.83 4.02513,3.92159 0 0 1 -2.18,-0.6 A 4.09335,3.98805 0 0 1 0,111.1 4.09335,3.98805 0 0 1 3.96,106.28 Z m 0,-2.26 a 6.37881,6.21472 -180 1 0 3.41,0.96 6.31058,6.14825 -180 0 0 -3.41,-0.96 z"
   class="st3"
   id="path48"
   inkscape:connector-curvature="0"
   style="fill:#32bedd;stroke:none;stroke-width:34;stroke-linecap:butt" />
				</g>
				<g
   id="shape20383-13">
					<title
   id="title51">Sheet.20383</title>
					<path
   d="M 18.76,81.18 C 8.53,81.18 0,78.22 0,74.6 v 34.96 c 0,3.62 8.22,6.64 18.39,6.64 h 0.37 c 10.23,0 18.66,-2.92 18.66,-6.64 V 74.6 c -0.14,3.62 -8.43,6.58 -18.66,6.58 z"
   class="st4"
   id="path53"
   inkscape:connector-curvature="0"
   style="fill:url(#grad0-16);stroke:none;stroke-width:34;stroke-linecap:butt" />
				</g>
				<g
   id="shape20384-17"
   transform="translate(0,-34.9619)">
					<title
   id="title56">Sheet.20384</title>
					<path
   d="m 37.28,109.56 c 0,3.62 -8.35,6.64 -18.66,6.64 C 8.32,116.2 0,113.18 0,109.56 c 0,-3.62 8.53,-6.58 18.76,-6.58 10.23,0 18.66,2.92 18.66,6.64 z"
   class="st5"
   id="path58"
   inkscape:connector-curvature="0"
   style="fill:#e8e8e8" />
					<path
   d="m 37.28,109.56 c 0,3.62 -8.35,6.64 -18.66,6.64 C 8.32,116.2 0,113.18 0,109.56 c 0,-3.62 8.53,-6.58 18.76,-6.58 10.23,0 18.66,2.92 18.66,6.64"
   class="st6"
   id="path60"
   inkscape:connector-curvature="0"
   style="stroke:none;stroke-width:34;stroke-linecap:butt" />
				</g>
				<g
   id="shape20385-20"
   transform="translate(4.33213,-37.9862)">
					<title
   id="title63">Sheet.20385</title>
					<path
   d="m 28.59,112.05 c 0,2.29 -6.38,4.15 -14.3,4.15 C 6.38,116.2 0,114.34 0,112.05 c 0,-2.29 6.41,-4.19 14.43,-4.19 8.02,0 14.29,1.86 14.29,4.19 z"
   class="st7"
   id="path65"
   inkscape:connector-curvature="0"
   style="fill:#50e6ff" />
					<path
   d="m 28.59,112.05 c 0,2.29 -6.38,4.15 -14.3,4.15 C 6.38,116.2 0,114.34 0,112.05 c 0,-2.29 6.41,-4.19 14.43,-4.19 8.02,0 14.29,1.86 14.29,4.19"
   class="st6"
   id="path67"
   inkscape:connector-curvature="0"
   style="stroke:none;stroke-width:34;stroke-linecap:butt" />
				</g>
				<g
   id="shape20386-23"
   transform="translate(7.47037,-37.9862)">
					<title
   id="title70">Sheet.20386</title>
					<path
   d="M 11.29,113.01 A 34.5206,33.6326 -180 0 0 0,114.58 a 32.9856,32.1371 -180 0 0 11.29,1.62 33.3608,32.5026 -180 0 0 11.33,-1.62 34.5888,33.699 -180 0 0 -11.33,-1.57 z"
   class="st8"
   id="path72"
   inkscape:connector-curvature="0"
   style="fill:#198ab3;stroke:none;stroke-width:34;stroke-linecap:butt" />
				</g>
			</g>
		</g>
	</g>
</svg>

<?xml version="1.0" encoding="UTF-8" standalone="no"?>
<!DOCTYPE svg PUBLIC "-//W3C//DTD SVG 1.1//EN" "http://www.w3.org/Graphics/SVG/1.1/DTD/svg11.dtd">
<!-- Generated by Microsoft Visio, SVG Export Data Share.svg Page-1 -->
<svg xmlns="http://www.w3.org/2000/svg" xmlns:xlink="http://www.w3.org/1999/xlink" xmlns:ev="http://www.w3.org/2001/xml-events"
		width="1.74984in" height="1.61395in" viewBox="0 0 125.988 116.205" xml:space="preserve" color-interpolation-filters="sRGB"
		class="st9">
	<style type="text/css">
	<![CDATA[
		.st1 {fill:#949494;stroke:none;stroke-linecap:butt;stroke-width:34}
		.st2 {fill:#ffffff;stroke:none;stroke-linecap:butt;stroke-width:34}
		.st3 {fill:#32bedd;stroke:none;stroke-linecap:butt;stroke-width:34}
		.st4 {fill:url(#grad0-16);stroke:none;stroke-linecap:butt;stroke-width:34}
		.st5 {fill:#e8e8e8}
		.st6 {stroke:none;stroke-linecap:butt;stroke-width:34}
		.st7 {fill:#50e6ff}
		.st8 {fill:#198ab3;stroke:none;stroke-linecap:butt;stroke-width:34}
		.st9 {fill:none;fill-rule:evenodd;font-size:12px;overflow:visible;stroke-linecap:square;stroke-miterlimit:3}
	]]>
	</style>

	<defs id="Patterns_And_Gradients">
		<linearGradient id="grad0-16" x1="0" y1="0" x2="1" y2="0" gradientTransform="rotate(0 0.5 0.5)">
			<stop offset="0" stop-color="#005ba1" stop-opacity="1"/>
			<stop offset="0.07" stop-color="#0060a9" stop-opacity="1"/>
			<stop offset="0.36" stop-color="#0071c8" stop-opacity="1"/>
			<stop offset="0.52" stop-color="#0078d4" stop-opacity="1"/>
			<stop offset="0.64" stop-color="#0074cd" stop-opacity="1"/>
			<stop offset="0.82" stop-color="#006abb" stop-opacity="1"/>
			<stop offset="1" stop-color="#005ba1" stop-opacity="1"/>
		</linearGradient>
	</defs>
	<g>
		<title>Page-1</title>
		<g id="group19921-1" transform="translate(34,-34.0157)">
			<title>Data Share.19921</title>
			<g id="group19922-2">
				<title>Icon-storage-98</title>
				<g id="shape19923-3" transform="translate(36.3967,-6.61352)">
					<title>Sheet.19923</title>
					<path d="M16.48 84.7 L13.99 83.5 L6.45 98.59 L0 98.59 L0 101.25 L6.52 101.25 L13.99 116.2 L16.48 115.01 L8.9
								 99.85 L16.48 84.7 Z" class="st1"/>
				</g>
				<g id="shape19924-5" transform="translate(46.5278,-33.6326)">
					<title>Sheet.19924</title>
					<path d="M5.08 116.2 A4.94613 4.8189 0 0 1 2.32 115.41 A5.01436 4.88537 0 0 1 0 112.08 A5.21902 5.08477 0 0 1
								 5.08 105.87 A5.1508 5.0183 0 0 1 7.88 106.67 A5.25313 5.118 0 0 1 10.17 109.99 A5.21902 5.08477
								 0 0 1 5.08 116.17 L5.08 116.2 Z" class="st2"/>
				</g>
				<g id="shape19925-7" transform="translate(47.6534,-32.7486)">
					<title>Sheet.19925</title>
					<path d="M3.96 106.28 A4.09335 3.98805 0 0 1 6.14 106.91 A3.99102 3.88835 0 0 1 7.91 109.37 A4.05924 3.95482
								 0 0 1 7.4 112.36 A4.12746 4.02129 0 0 1 3.99 114.19 A4.02513 3.92159 0 0 1 1.81 113.59 A4.09335
								 3.98805 0 0 1 -0 111.1 A4.09335 3.98805 0 0 1 3.96 106.28 ZM3.96 104.02 A6.37881 6.21472 -180 1
								 0 7.37 104.98 A6.31058 6.14825 -180 0 0 3.96 104.02 Z" class="st3"/>
				</g>
				<g id="shape19926-9" transform="translate(46.5266,-2.12696)">
					<title>Sheet.19926</title>
					<path d="M5.08 116.2 A4.94613 4.8189 0 0 1 2.32 115.41 A5.1508 5.0183 0 0 1 0.68 108.43 A5.18491 5.05153 0 0
								 1 7.88 106.83 A5.21902 5.08477 0 0 1 5.08 116.2 Z" class="st2"/>
				</g>
				<g id="shape19927-11" transform="translate(47.6534,-1.24294)">
					<title>Sheet.19927</title>
					<path d="M3.96 106.28 A4.09335 3.98805 0 0 1 6.14 106.91 A3.99102 3.88835 0 0 1 7.91 109.37 A4.05924 3.95482
								 0 0 1 7.4 112.36 A4.12746 4.02129 0 0 1 3.99 114.19 A4.02513 3.92159 0 0 1 1.81 113.59 A4.09335
								 3.98805 0 0 1 0 111.1 A4.09335 3.98805 0 0 1 3.96 106.28 ZM3.96 104.02 A6.37881 6.21472 -180 1 0
								 7.37 104.98 A6.31058 6.14825 -180 0 0 3.96 104.02 Z" class="st3"/>
				</g>
				<g id="shape19928-13">
					<title>Sheet.19928</title>
					<path d="M18.76 81.18 C8.53 81.18 0 78.22 0 74.6 L0 109.56 C0 113.18 8.22 116.2 18.39 116.2 L18.76 116.2 C28.99
								 116.2 37.42 113.28 37.42 109.56 L37.42 74.6 C37.28 78.22 28.99 81.18 18.76 81.18 Z" class="st4"/>
				</g>
				<g id="shape19929-17" transform="translate(0,-34.9619)">
					<title>Sheet.19929</title>
					<path d="M37.28 109.56 C37.28 113.18 28.93 116.2 18.62 116.2 C8.32 116.2 0 113.18 0 109.56 C0 105.94 8.53 102.98
								 18.76 102.98 C28.99 102.98 37.42 105.9 37.42 109.62 L37.28 109.56 Z" class="st5"/>
					<path d="M37.28 109.56 C37.28 113.18 28.93 116.2 18.62 116.2 C8.32 116.2 0 113.18 0 109.56 C0 105.94 8.53 102.98
								 18.76 102.98 C28.99 102.98 37.42 105.9 37.42 109.62" class="st6"/>
				</g>
				<g id="shape19930-20" transform="translate(4.33213,-37.9862)">
					<title>Sheet.19930</title>
					<path d="M28.59 112.05 C28.59 114.34 22.21 116.2 14.29 116.2 C6.38 116.2 0 114.34 0 112.05 C0 109.76 6.41 107.86
								 14.43 107.86 C22.45 107.86 28.72 109.72 28.72 112.05 L28.59 112.05 Z" class="st7"/>
					<path d="M28.59 112.05 C28.59 114.34 22.21 116.2 14.29 116.2 C6.38 116.2 0 114.34 0 112.05 C0 109.76 6.41 107.86
								 14.43 107.86 C22.45 107.86 28.72 109.72 28.72 112.05" class="st6"/>
				</g>
				<g id="shape19931-23" transform="translate(7.47037,-37.9862)">
					<title>Sheet.19931</title>
					<path d="M11.29 113.01 A34.5206 33.6326 -180 0 0 -0 114.58 A32.9856 32.1371 -180 0 0 11.29 116.2 A33.3608 32.5026
								 -180 0 0 22.62 114.58 A34.5888 33.699 -180 0 0 11.29 113.01 Z" class="st8"/>
				</g>
			</g>
		</g>
	</g>
</svg>
